X:161
T:AIR XXXVIII. Jocky and Jenny.
O:england
B:Joseph Mitchell: "The Highland Fair" (1731)
M:3/4
L:1/8
K:F
A2   c2   f2 |(dc) (BA) (GF)   |(EF)  G2  (AB)|G6    |\
B2   d2   f2 |(dc) (BA) (B/c/d)|(cA) (GF) (GA)|F4 F2 |
A2   c2   f2 |(dc) (BA) (GF)   |(EF)  G2  (AB)|G4 G2 |\
B2   d2   f2 |(dc) (BA) (B/c/d)|(cA) (GF) (GA)|F6    |
(ef)  g2   a2 | g2  (fe) (dc)   | f2   f2   e2 |d4 f2 |\
(ef) (ge) (af)|(ge) (fd) (ec)   |(d=B) G2   B2 |c4(fe)|
f2   A2   d2 | c2   F2   A2    | B3    c  (BA)|G4 c2 |\
(df)  e2   f2 |(ga) (ba) (gf)   |(ge)  c2  (fe)|f6   |]


